icons/svg/pine-tree-box.svg

﻿<?xml version="1.0" encoding="utf-8"?>
<!DOCTYPE svg PUBLIC "-//W3C//DTD SVG 1.1//EN" "http://www.w3.org/Graphics/SVG/1.1/DTD/svg11.dtd">
<svg xmlns="http://www.w3.org/2000/svg" xmlns:xlink="http://www.w3.org/1999/xlink" version="1.1" baseProfile="full" width="24" height="24" viewBox="0 0 24.00 24.00" enable-background="new 0 0 24.00 24.00" xml:space="preserve">
	<path fill="#000000" fill-opacity="1" stroke-width="0.2" stroke-linejoin="round" d="M 4,2L 20,2C 21.1046,2 22,2.89543 22,4L 22,20C 22,21.1046 21.1046,22 20,22L 4,22C 2.89543,22 2,21.1046 2,20L 2,4C 2,2.89543 2.89543,2 4,2 Z M 11,19L 13,19L 13,17L 18,17L 14,13L 17,13L 13,9L 16,9L 12,5L 8,9L 11,9L 7,13L 10,13L 6,17L 11,17L 11,19 Z "/>
</svg>

<svg xmlns="http://www.w3.org/2000/svg" version="1.1" baseProfile="full" width="24" height="24" viewBox="0 0 24.00 24.00" xml:space="preserve"><path fill="#000" fill-opacity="1" stroke-width=".2" stroke-linejoin="round" d="M4 2h16c1.105 0 2 .895 2 2v16c0 1.105-.895 2-2 2H4c-1.105 0-2-.895-2-2V4c0-1.105.895-2 2-2zm7 17h2v-2h5l-4-4h3l-4-4h3l-4-4-4 4h3l-4 4h3l-4 4h5v2z"/></svg>
